X: 704
T: Jin lanfang
%%abc-version 2.0
%%abcx-abcm2ps-target-version 5.9.1 (29 Sep 2008)
%%abc-creator hum2abc beta
%%abcx-conversion-date 2013/10/02 07:52:30
%%abc-edited-by Helmut Schaffrath
%%humdrum-veritas 1509966788
%%humdrum-veritas-data 2229780332
%%continueall 1
%%barnumbers 0
L: 1/8
M: 2/4
K: G
B2d A [I:setbarnb 1]| 
B2A B | 
d B d e | 
B A G B | 
A4 | 
A3B | 
D3E | 
G2B A | 
G3A | 
G4 | 
A3B | 
G3B | 
A GE2- | 
E2E G | 
A4 | 
A B G E | 
D2D2 | 
d2d2 | 
B d B A | 
G A d B | 
A3B | 
A4 |]  



